ui_kit/lib/assets/icons/stream.svg

<svg width="24" height="24" viewBox="0 0 24 24" fill="none" xmlns="http://www.w3.org/2000/svg">
<path fill-rule="evenodd" clip-rule="evenodd" d="M10.1392 4.87349C7.22903 5.63124 5.01928 8.12445 4.6813 11.1818H7.95008C8.13352 8.92102 8.89018 6.75088 10.1392 4.87349ZM13.8608 4.8735C15.1098 6.75089 15.8665 8.92102 16.0499 11.1818H19.3187C18.9807 8.12446 16.771 5.63125 13.8608 4.8735ZM14.4074 11.1818C14.2019 8.96195 13.3661 6.84704 12 5.08702C10.6339 6.84704 9.79811 8.96195 9.59258 11.1818H14.4074ZM9.59258 12.8182H14.4074C14.2019 15.038 13.3661 17.153 12 18.913C10.6339 17.153 9.7981 15.038 9.59258 12.8182ZM7.95008 12.8182H4.6813C5.01928 15.8755 7.22902 18.3687 10.1392 19.1265C8.89018 17.2491 8.13352 15.079 7.95008 12.8182ZM13.8608 19.1265C15.1098 17.2491 15.8665 15.079 16.0499 12.8182H19.3187C18.9807 15.8755 16.771 18.3687 13.8608 19.1265ZM12.0027 21C16.972 20.9985 21 16.9696 21 12C21 7.02943 16.9706 3 12 3C7.02943 3 3 7.02943 3 12C3 16.9697 7.02798 20.9985 11.9973 21C11.9982 21 11.9991 21 12 21C12.0009 21 12.0018 21 12.0027 21Z" fill="white"/>
</svg>

<svg xmlns="http://www.w3.org/2000/svg" width="24" height="24" fill="none" viewBox="0 0 24 24"><path fill="#fff" fill-rule="evenodd" d="M10.14 4.873a7.37 7.37 0 0 0-5.459 6.309h3.27c.183-2.261.94-4.431 2.188-6.309Zm3.72 0a13.337 13.337 0 0 1 2.19 6.309h3.269a7.37 7.37 0 0 0-5.458-6.309Zm.547 6.309A11.7 11.7 0 0 0 12 5.087a11.7 11.7 0 0 0-2.407 6.095h4.814Zm-4.814 1.636h4.814A11.7 11.7 0 0 1 12 18.913a11.7 11.7 0 0 1-2.407-6.095Zm-1.643 0H4.681a7.37 7.37 0 0 0 5.458 6.309 13.337 13.337 0 0 1-2.189-6.309Zm5.91 6.309a13.337 13.337 0 0 0 2.19-6.309h3.269a7.37 7.37 0 0 1-5.458 6.309ZM12.004 21a9 9 0 1 0 .005-18 9 9 0 0 0-.01 18h.005Z" clip-rule="evenodd"/></svg>
